docs/assets/img/semi-circle-bg.svg

<svg width="268" height="453" viewBox="0 0 268 453" fill="none" xmlns="http://www.w3.org/2000/svg">
<path d="M0 237.355C0.5 200.455 5.6 164.455 19.5 130.155C28.1 108.955 39.4 89.1546 54.9 71.9546C92.9 29.8546 141 7.95464 196.3 0.454638C205.2 -0.745362 214.6 0.654638 223.6 2.05464C237.5 4.25464 252.3 20.5546 249.8 35.6546C247.8 47.9546 240.8 56.9546 230.2 62.5546C216.2 69.9546 201.9 76.6546 187.4 82.9546C160.2 94.6546 135.1 109.755 114.6 131.355C95.4 151.555 80.8 174.555 77.5 202.855C76.2 214.255 76.6 226.155 77.9 237.655C80.4 260.155 86.2 281.855 95.8 302.355C111.8 336.655 137.7 359.055 174.7 368.055C192.5 372.355 210.5 375.755 228.3 379.955C239.7 382.655 250.1 387.455 258.1 396.255C266.7 405.655 269.4 416.955 267.1 429.255C264.9 441.555 251 452.355 237.1 452.155C219.5 451.855 201.8 451.055 184.2 449.655C170.3 448.555 156.2 447.255 142.6 444.255C108.1 436.755 79.9 418.655 56.9 391.655C34.2 364.955 16.6 335.755 7.4 301.855C5.3 293.955 3.6 285.955 2.7 277.855C1.5 264.255 0.9 250.755 0 237.355Z" fill="#3C35D3"/>
</svg>

<svg width="268" height="453" fill="none" xmlns="http://www.w3.org/2000/svg"><path d="M0 237.355c.5-36.9 5.6-72.9 19.5-107.2 8.6-21.2 19.9-41 35.4-58.2 38-42.1 86.1-64 141.4-71.5 8.9-1.2 18.3.2 27.3 1.6 13.9 2.2 28.7 18.5 26.2 33.6-2 12.3-9 21.3-19.6 26.9-14 7.4-28.3 14.1-42.8 20.4-27.2 11.7-52.3 26.8-72.8 48.4-19.2 20.2-33.8 43.2-37.1 71.5-1.3 11.4-.9 23.3.4 34.8 2.5 22.5 8.3 44.2 17.9 64.7 16 34.3 41.9 56.7 78.9 65.7 17.8 4.3 35.8 7.7 53.6 11.9 11.4 2.7 21.8 7.5 29.8 16.3 8.6 9.4 11.3 20.7 9 33-2.2 12.3-16.1 23.1-30 22.9-17.6-.3-35.3-1.1-52.9-2.5-13.9-1.1-28-2.4-41.6-5.4-34.5-7.5-62.7-25.6-85.7-52.6-22.7-26.7-40.3-55.9-49.5-89.8-2.1-7.9-3.8-15.9-4.7-24-1.2-13.6-1.8-27.1-2.7-40.5z" fill="#3C35D3"/></svg>
